RestoDelMundo/Suiza/Otras Categorias/Fc Grenchen2.svg

<svg xmlns="http://www.w3.org/2000/svg" viewBox="0 0 612 792"><path fill="#1955a6" d="M85.998 345.559c14.906 11.694 24.498 29.97 24.498 50.534 0 20.545-9.592 38.833-24.485 50.534h503.378V345.559z"/><path fill="#fff" d="M136.422 392.001h17.598v10.496h-17.598v17.602H124.91v-48h30.613v10.497h-19.101zM197.181 401.924v1.406c0 5.245-.054 9.986-3.972 13.629-3.912 3.587-8.69 3.511-13.692 3.511-11.742 0-20.315-.624-20.315-18.162v-12.419c0-15.874 7.657-18.175 20.315-18.175 11.852 0 17.371 1.343 17.61 15.742v1.854h-11.852v-1.854c-.4-4.287-3.111-4.608-7.023-4.608-6.553 0-7.199 2.244-7.199 9.085v7.496c0 7.168.293 9.922 7.199 9.922 4.782 0 7.073-.384 7.073-6.02v-1.406h11.856M243.904 387.008c-.239-4.86-3.968-4.804-7.423-4.804-8.284 0-8.514 2.824-8.637 10.56v7.817c0 8.511 2.645 9.4 8.637 9.4 5.875 0 7.423-1.463 7.423-8.126h-7.94v-8.895h19.619v8.385c0 16.195-3.679 19.126-19.102 19.126-13.583 0-20.492-2.547-20.492-18.099v-12.419c0-15.874 7.833-18.238 20.492-18.238 11.155 0 19.102.057 19.102 15.294h-11.679M261.483 372.099h22.2c9.961.183 14.853 2.56 14.853 14.525 0 7.994 0 12.671-8.164 14.783v.517c4.712.189 7.764 3.07 7.764 8.511v9.665h-11.515v-6.727c.117-3.575-1.261-6.008-4.712-6.008h-8.917v12.734h-11.508v-48m20.425 24.12c4.955 0 4.775-2.042 4.775-7.489 0-4.281-.98-5.497-4.775-5.497h-8.917v12.986zM316.09 391.358h18.405v8.895H316.09v9.35h20.019v10.496h-31.53v-48h31.13v10.497H316.09zM354.927 420.099h-11.505v-48h19.445l12.382 36.867h.45l-.69-36.867h11.508v48h-19.615l-12.208-36.867h-.454zM430.016 401.924v1.406c0 5.245-.044 9.986-3.971 13.629-3.906 3.587-8.688 3.511-13.689 3.511-11.739 0-20.309-.624-20.309-18.162v-12.419c0-15.874 7.647-18.175 20.309-18.175 11.851 0 17.371 1.343 17.617 15.742v1.854h-11.868v-1.854c-.394-4.287-3.105-4.608-7.01-4.608-6.572 0-7.202 2.244-7.202 9.085v7.496c0 7.168.29 9.922 7.202 9.922 4.766 0 7.07-.384 7.07-6.02v-1.406h11.851M473.641 420.099h-11.509v-18.818h-15.016v18.818h-11.512v-48h11.512v18.049h15.016v-18.049h11.509zM492.452 391.358h18.412v8.895h-18.412v9.35h20.025v10.496h-31.533v-48h31.127v10.497h-19.619zM531.302 420.099H519.79v-48h19.439l12.381 36.867h.457l-.696-36.867h11.511v48h-19.618l-12.202-36.867h-.457z"/><path fill="#1955a6" d="M97.226 393.36H71.993v4.797H92.65c-1.024 16.893-15.061 30.29-32.207 30.29-3.118 0-6.132-.444-8.984-1.27v-2.998a25.3 25.3 0 0 0 8.214 1.362c12.37 0 22.657-8.813 24.879-20.538h-4.765c-2.19 9.084-10.357 15.873-20.114 15.873-2.919 0-5.696-.607-8.214-1.7v-21.019H67.89v-4.797H51.46v-12.123a20.6 20.6 0 0 1 8.214-1.701c6.16 0 11.701 2.698 15.5 6.979l5.832-.006c-4.532-6.998-12.383-11.631-21.332-11.631-2.875 0-5.638.48-8.214 1.361v-4.103h23.272v-4.791H46.667v11.123c-7.385 4.426-12.326 12.507-12.326 21.746 0 9.23 4.941 17.311 12.326 21.739v3.411c-10.925-5.171-18.485-16.297-18.485-29.184 0-17.815 14.446-32.263 32.263-32.263 14.44 0 26.684 9.513 30.811 22.593h4.86c-4.241-15.76-18.656-27.391-35.756-27.391-20.419 0-36.971 16.554-36.971 36.979 0 20.418 16.551 36.973 36.971 36.973s36.98-16.554 36.98-36.973a40 40 0 0 0-.114-2.738m-58.212 6.852c0-6.483 2.985-12.27 7.652-16.062v32.113c-4.667-3.788-7.652-9.571-7.652-16.051"/></svg>

<svg enable-background="new 0 0 612 792" viewBox="0 0 612 792" xmlns="http://www.w3.org/2000/svg"><path d="M 85.998 345.559 c 14.906 11.694 24.498 29.97 24.498 50.534 c 0 20.545 -9.592 38.833 -24.485 50.534 h 503.378 V 345.559 H 85.998" fill="#1955a6"/><path d="M 136.422 392.001 L 154.02 392.001 L 154.02 402.497 L 136.422 402.497 L 136.422 420.099 L 124.91 420.099 L 124.91 372.099 L 155.523 372.099 L 155.523 382.596 L 136.422 382.596 L 136.422 392.001" fill="#fff"/><path d="M 197.181 401.924 v 1.406 c 0 5.245 -.054 9.986 -3.972 13.629 c -3.912 3.587 -8.69 3.511 -13.692 3.511 c -11.742 0 -20.315 -.624 -20.315 -18.162 v -12.419 c 0 -15.874 7.657 -18.175 20.315 -18.175 c 11.852 0 17.371 1.343 17.61 15.742 v 1.854 h -11.852 v -1.854 c -.4 -4.287 -3.111 -4.608 -7.023 -4.608 c -6.553 0 -7.199 2.244 -7.199 9.085 v 7.496 c 0 7.168 .293 9.922 7.199 9.922 c 4.782 0 7.073 -.384 7.073 -6.02 v -1.406 H 197.181" fill="#fff"/><path d="M 243.904 387.008 c -.239 -4.86 -3.968 -4.804 -7.423 -4.804 c -8.284 0 -8.514 2.824 -8.637 10.56 v 7.817 c 0 8.511 2.645 9.4 8.637 9.4 c 5.875 0 7.423 -1.463 7.423 -8.126 h -7.94 v -8.895 h 19.619 v 8.385 c 0 16.195 -3.679 19.126 -19.102 19.126 c -13.583 0 -20.492 -2.547 -20.492 -18.099 v -12.419 c 0 -15.874 7.833 -18.238 20.492 -18.238 c 11.155 0 19.102 .057 19.102 15.294 H 243.904" fill="#fff"/><path d="M 261.483 372.099 h 22.2 c 9.961 .183 14.853 2.56 14.853 14.525 c 0 7.994 0 12.671 -8.164 14.783 v .517 c 4.712 .189 7.764 3.07 7.764 8.511 v 9.665 h -11.515 v -6.727 c .117 -3.575 -1.261 -6.008 -4.712 -6.008 h -8.917 v 12.734 h -11.508 V 372.099 M 281.909 396.219 c 4.955 0 4.775 -2.042 4.775 -7.489 c 0 -4.281 -.98 -5.497 -4.775 -5.497 h -8.917 v 12.986 H 281.909 z" fill="#fff"/><path d="M 316.09 391.358 L 334.495 391.358 L 334.495 400.253 L 316.09 400.253 L 316.09 409.603 L 336.109 409.603 L 336.109 420.099 L 304.579 420.099 L 304.579 372.099 L 335.709 372.099 L 335.709 382.596 L 316.09 382.596 L 316.09 391.358" fill="#fff"/><path d="M 354.927 420.099 L 343.422 420.099 L 343.422 372.099 L 362.867 372.099 L 375.249 408.966 L 375.699 408.966 L 375.009 372.099 L 386.517 372.099 L 386.517 420.099 L 366.902 420.099 L 354.694 383.232 L 354.24 383.232 L 354.927 420.099" fill="#fff"/><path d="M 430.016 401.924 v 1.406 c 0 5.245 -.044 9.986 -3.971 13.629 c -3.906 3.587 -8.688 3.511 -13.689 3.511 c -11.739 0 -20.309 -.624 -20.309 -18.162 v -12.419 c 0 -15.874 7.647 -18.175 20.309 -18.175 c 11.851 0 17.371 1.343 17.617 15.742 v 1.854 h -11.868 v -1.854 c -.394 -4.287 -3.105 -4.608 -7.01 -4.608 c -6.572 0 -7.202 2.244 -7.202 9.085 v 7.496 c 0 7.168 .29 9.922 7.202 9.922 c 4.766 0 7.07 -.384 7.07 -6.02 v -1.406 H 430.016" fill="#fff"/><path d="M 473.641 420.099 L 462.132 420.099 L 462.132 401.281 L 447.116 401.281 L 447.116 420.099 L 435.604 420.099 L 435.604 372.099 L 447.116 372.099 L 447.116 390.148 L 462.132 390.148 L 462.132 372.099 L 473.641 372.099 L 473.641 420.099" fill="#fff"/><path d="M 492.452 391.358 L 510.864 391.358 L 510.864 400.253 L 492.452 400.253 L 492.452 409.603 L 512.477 409.603 L 512.477 420.099 L 480.944 420.099 L 480.944 372.099 L 512.071 372.099 L 512.071 382.596 L 492.452 382.596 L 492.452 391.358" fill="#fff"/><path d="M 531.302 420.099 L 519.79 420.099 L 519.79 372.099 L 539.229 372.099 L 551.61 408.966 L 552.067 408.966 L 551.371 372.099 L 562.882 372.099 L 562.882 420.099 L 543.264 420.099 L 531.062 383.232 L 530.605 383.232 L 531.302 420.099" fill="#fff"/><path d="M 97.226 393.36 H 96.43 h -3.888 H 71.993 v 4.797 H 92.65 c -1.024 16.893 -15.061 30.29 -32.207 30.29 c -3.118 0 -6.132 -.444 -8.984 -1.27 v -2.998 c 2.576 .882 5.338 1.362 8.214 1.362 c 12.37 0 22.657 -8.813 24.879 -20.538 h -4.765 c -2.19 9.084 -10.357 15.873 -20.114 15.873 c -2.919 0 -5.696 -.607 -8.214 -1.7 v -21.019 h 16.431 v -4.797 H 51.46 v -12.123 c 2.518 -1.094 5.295 -1.701 8.214 -1.701 c 6.16 0 11.701 2.698 15.5 6.979 l 5.832 -.006 c -4.532 -6.998 -12.383 -11.631 -21.332 -11.631 c -2.875 0 -5.638 .48 -8.214 1.361 v -4.103 h 23.272 v -4.791 H 46.667 v 11.123 c -7.385 4.426 -12.326 12.507 -12.326 21.746 c 0 9.23 4.941 17.311 12.326 21.739 v 3.411 c -10.925 -5.171 -18.485 -16.297 -18.485 -29.184 c 0 -17.815 14.446 -32.263 32.263 -32.263 c 14.44 0 26.684 9.513 30.811 22.593 h 4.86 c -4.241 -15.76 -18.656 -27.391 -35.756 -27.391 c -20.419 0 -36.971 16.554 -36.971 36.979 c 0 20.418 16.551 36.973 36.971 36.973 c 20.42 0 36.98 -16.554 36.98 -36.973 C 97.339 395.182 97.289 394.262 97.226 393.36 z M 39.014 400.212 c 0 -6.483 2.985 -12.27 7.652 -16.062 v 32.113 C 41.999 412.475 39.014 406.692 39.014 400.212 z" fill="#1955a6"/></svg>
